docs/.gitbook/assets/icon-eye-dropper-16@light.svg

<svg width="32" height="32" viewBox="0 0 16 16" fill="none" xmlns="http://www.w3.org/2000/svg">
<rect x="0" y="0" width="16" height="16" fill="#fff"/>
<path fill-rule="evenodd" clip-rule="evenodd" d="M12.0048 2.75653C12.3469 2.41449 12.9014 2.41449 13.2435 2.75653L13.7708 2.2292L13.2435 2.75653C13.5855 3.09858 13.5855 3.65314 13.2435 3.99519L11.6497 5.589L10.411 4.35034L12.0048 2.75653ZM12.7197 8.78033L12.0109 8.07159L7.35973 12.9166C6.72518 13.5776 5.91299 14.041 5.02108 14.2508L4.98237 14.2599L4.98173 14.2601L1.92179 14.9801C1.66896 15.0396 1.40335 14.964 1.21968 14.7803C1.03602 14.5967 0.960462 14.3311 1.01995 14.0782L1.74919 10.9789C1.95906 10.087 2.42241 9.27484 3.0834 8.64029L7.92842 3.98907L7.21968 3.28033C6.92679 2.98744 6.92679 2.51256 7.21968 2.21967C7.51258 1.92678 7.98745 1.92678 8.28034 2.21967L9.35036 3.28968L10.9442 1.69587C11.872 0.768041 13.3763 0.768043 14.3041 1.69587C15.232 2.62371 15.232 4.12802 14.3041 5.05585L12.7103 6.64966L13.7803 7.71967C14.0732 8.01256 14.0732 8.48744 13.7803 8.78033C13.4875 9.07322 13.0126 9.07322 12.7197 8.78033ZM8.9893 5.04995L10.9501 7.01071L8.08035 10H3.86483C3.94489 9.90286 4.03078 9.81013 4.1222 9.72237L8.9893 5.04995Z" fill="#000"/>
</svg>

<svg xmlns="http://www.w3.org/2000/svg" width="32" height="32" fill="none" viewBox="0 0 16 16"><path fill="#fff" d="M0 0h16v16H0z"/><path fill="#000" fill-rule="evenodd" d="M12.005 2.757a.876.876 0 0 1 1.238 0l.528-.528-.528.528a.876.876 0 0 1 0 1.238L11.65 5.59l-1.24-1.24zm.715 6.023-.71-.708-4.65 4.845a4.75 4.75 0 0 1-2.34 1.333l-.039.009-3.06.72a.75.75 0 0 1-.902-.902l.73-3.1A4.75 4.75 0 0 1 3.082 8.64l4.845-4.65-.708-.71a.75.75 0 0 1 1.06-1.06l1.07 1.07 1.594-1.594a2.376 2.376 0 1 1 3.36 3.36L12.71 6.65l1.07 1.07a.75.75 0 0 1-1.06 1.06M8.99 5.05l1.96 1.96L8.08 10H3.865q.12-.146.257-.278z" clip-rule="evenodd"/></svg>
